X:9
T:Star above the Garter, The
R:slide
Z:id:hn-slide-9
M:6/8
K:G
d2B BAG|~A3 ABA|G2E c2B|BAG ABc|d2B BAG|~A3 ABA|G2E c2E|D3 D3:|
|:d2e f2a|g2e d2B|G2B c2B|BAG ABc|d2e f2a|g2e d2B|G2B c2E|D3 D3:|
<end>
<start>
